X:1
T:Galop [1]
C:
M:2/4
K:G
N:From the Haynes Family Manuscript, Willamette Valley, Oregon, ca. 1863-1880
Z:V.T. Williams
"G"d2dd d2d2|d2D2 G2B2|d2dd d2d2|d2b2 a2g2|"D7"g2f2 f2c'2|c'2e2 e2f2|e2d2 d2f2|"G"g2z2 g2z2:|
"D7"d2z2 c'2z2|e2z2 f2z2|"G"e2d2(g4|g4)e2f2|"D7"e2d2(f4|f4)e2f2|"G"e2d2(g4|g2)ag f2e2|
"D7"d2z2 c'2z2|e2z2 f2z2|"G"e2d2(g4|g4)e2d2|"A7"^c2d2 e2f2|g2A2 B2^c2|"D"d2dd d2d2|d8||
"G"d2dd d2d2|d2D2 G2B2|d2dd d2d2|d2b2 a2g2|"D7"g2f2 f2c'2|c'2e2 e2f2|e2d2 d2f2|"G"g2z2 g2z2||
K:C
"C"g2^fg a2g2|=f2e2 d2c2|"F"c2Bd c2A2|"C"G8|"G"G2Bd g2g2|G2Bd g2g2|"D"d2^cd e2d2|"G"c2B2 A2G2|
"C"g2^fg a2g2|=f2e2 d2c2|"F"c2Bd c2A2|"C"G8|"G"G2Bd g2g2|"C"G2ce g2g2|"G"G2Bd g2G2|"C"c8|]

